scene/resources/default_theme/error_icon.svg

<svg height="16" viewBox="0 0 16 16" width="16" xmlns="http://www.w3.org/2000/svg"><path d="m2 1v8.5859l1.293-1.293a1.0001 1.0001 0 0 1 .69141-.29102 1.0001 1.0001 0 0 1 .72266.29102l2.293 2.293 2.293-2.293a1.0001 1.0001 0 0 1 1.4141 0l2.293 2.293 1-1v-3.5859h-5v-5h-7zm8 0v4h4zm-6 9.4141-2 2v2.5859h12v-2.5859l-.29297.29297a1.0001 1.0001 0 0 1 -1.4141 0l-2.293-2.293-2.293 2.293a1.0001 1.0001 0 0 1 -1.4141 0l-2.293-2.293z" fill="#ff5d5d" transform="translate(0 -.000017)"/></svg>

<svg height="16" viewBox="0 0 16 16" width="16" xmlns="http://www.w3.org/2000/svg"><path d="M2 1v8.586l1.293-1.293a1 1 0 0 1 1.414 0L7 10.587l2.293-2.293a1 1 0 0 1 1.414 0L13 10.586l1-1V6H9V1H2zm8 0v4h4zm-6 9.414-2 2V15h12v-2.586l-.293.293a1 1 0 0 1-1.414 0L10 10.414l-2.293 2.293a1 1 0 0 1-1.414 0L4 10.414z" fill="#ff5d5d"/></svg>
